X:1
N: Dalkeith's Strathspey
N: 8 x 32S 3C (RSCDS Bk 9)
T: Colonel Crawford's Reel
C: attrib. to Neil Gow, via B. McOwen
C: arr. T. Traub 5-6-97
M: 4/4
L: 1/8
%
K: F
R: strathspey
|: A|"F"F>CA,>C F/F/F A>F|"Gm"G/G/G B>A "C"G<DD>E|"F"F>CA,>C "Dm"F/F/F A>c|"Bb"d>f"C"c>f "F"A<F F :|
c|"F"f>ga>g f>ef>c|"Bb"d/d/d b>a "C"g<dd>e|"F"f>ga>g f>c"Bb"d>B|"C"A>cG>c "F"A<FF>c|
"F"f>ga>g "Dm"f>ef>c|"Bb"d/d/d b>a "C"g<dd>e|"F"f>ca>e f>c"Bb"d>B|A>c"C"G>B "F"A<F F |]
